dist/assets/img/corporulian-code/result/backdrop_3.svg

<svg width="1055" height="699" viewBox="0 0 1055 699" fill="none" xmlns="http://www.w3.org/2000/svg">
<g filter="url(#filter0_di_1497_89280)">
<path fill-rule="evenodd" clip-rule="evenodd" d="M875.768 172.671C754.364 59.4781 435.917 36.7256 287.711 111.086C165.702 172.303 100.401 245.263 108.566 351.114C109.447 362.54 102.968 373.773 91.5107 374.03C86.8457 374.134 82.8237 373.833 80.0912 373.628C80.0126 373.623 79.9693 373.717 80.0255 373.773C86.3338 379.996 95.6677 382.586 104.594 383.315C109.521 383.717 113.862 387.05 114.981 391.865C119.329 410.576 125.701 430.238 134.171 450.944C180.563 564.357 318.036 605.962 523.456 606.063C666.761 606.134 855.499 605.6 935.256 486.551C994.69 397.835 995.185 284.012 875.768 172.671Z" fill="white"/>
</g>
<defs>
<filter id="filter0_di_1497_89280" x="0" y="0" width="1054.44" height="698.065" filterUnits="userSpaceOnUse" color-interpolation-filters="sRGB">
<feFlood flood-opacity="0" result="BackgroundImageFix"/>
<feColorMatrix in="SourceAlpha" type="matrix" values="0 0 0 0 0 0 0 0 0 0 0 0 0 0 0 0 0 0 127 0" result="hardAlpha"/>
<feOffset dy="12"/>
<feGaussianBlur stdDeviation="40"/>
<feComposite in2="hardAlpha" operator="out"/>
<feColorMatrix type="matrix" values="0 0 0 0 0.909804 0 0 0 0 0.313726 0 0 0 0 0.470588 0 0 0 1 0"/>
<feBlend mode="normal" in2="BackgroundImageFix" result="effect1_dropShadow_1497_89280"/>
<feBlend mode="normal" in="SourceGraphic" in2="effect1_dropShadow_1497_89280" result="shape"/>
<feColorMatrix in="SourceAlpha" type="matrix" values="0 0 0 0 0 0 0 0 0 0 0 0 0 0 0 0 0 0 127 0" result="hardAlpha"/>
<feOffset dy="-4"/>
<feGaussianBlur stdDeviation="4"/>
<feComposite in2="hardAlpha" operator="arithmetic" k2="-1" k3="1"/>
<feColorMatrix type="matrix" values="0 0 0 0 0.909804 0 0 0 0 0.313726 0 0 0 0 0.470588 0 0 0 0.48 0"/>
<feBlend mode="normal" in2="shape" result="effect2_innerShadow_1497_89280"/>
</filter>
</defs>
</svg>

<svg width="1055" height="699" viewBox="0 0 1055 699" fill="none" xmlns="http://www.w3.org/2000/svg"><g filter="url(#filter0_di_1497_89280)"><path fill-rule="evenodd" clip-rule="evenodd" d="M875.768 172.671C754.364 59.478 435.917 36.726 287.711 111.086c-122.009 61.217-187.31 134.177-179.145 240.028.881 11.426-5.598 22.659-17.055 22.916-4.665.104-8.687-.197-11.42-.402a.085.085 0 00-.066.145c6.309 6.223 15.643 8.813 24.569 9.542 4.927.402 9.268 3.735 10.387 8.55 4.348 18.711 10.72 38.373 19.19 59.079 46.392 113.413 183.865 155.018 389.285 155.119 143.305.071 332.043-.463 411.8-119.512 59.434-88.716 59.929-202.539-59.488-313.88z" fill="#fff"/></g><defs><filter id="filter0_di_1497_89280" x="0" y="0" width="1054.44" height="698.065" filterUnits="userSpaceOnUse" color-interpolation-filters="sRGB"><feFlood flood-opacity="0" result="BackgroundImageFix"/><feColorMatrix in="SourceAlpha" values="0 0 0 0 0 0 0 0 0 0 0 0 0 0 0 0 0 0 127 0" result="hardAlpha"/><feOffset dy="12"/><feGaussianBlur stdDeviation="40"/><feComposite in2="hardAlpha" operator="out"/><feColorMatrix values="0 0 0 0 0.909804 0 0 0 0 0.313726 0 0 0 0 0.470588 0 0 0 1 0"/><feBlend in2="BackgroundImageFix" result="effect1_dropShadow_1497_89280"/><feBlend in="SourceGraphic" in2="effect1_dropShadow_1497_89280" result="shape"/><feColorMatrix in="SourceAlpha" values="0 0 0 0 0 0 0 0 0 0 0 0 0 0 0 0 0 0 127 0" result="hardAlpha"/><feOffset dy="-4"/><feGaussianBlur stdDeviation="4"/><feComposite in2="hardAlpha" operator="arithmetic" k2="-1" k3="1"/><feColorMatrix values="0 0 0 0 0.909804 0 0 0 0 0.313726 0 0 0 0 0.470588 0 0 0 0.48 0"/><feBlend in2="shape" result="effect2_innerShadow_1497_89280"/></filter></defs></svg>
